X: 3
T: The Toormore
R: slide
M: 12/8
L: 1/8
K: Ador
E>A (3AAA c>de>c |1 d>cA>G A2 A>G :|2 d>cA>G A>Bc>d :||: (3ege d>e c>eB>c | (3AAA d>c A>GE>c |E>A (3AAA c>de>c |1 d>cA>G A>Bc>d :|2 d>cA>G A2 A>G ||E>A (3AAA c>de>c |1 d>cA>G A3G:|2 d>cA>G A3 d :||:(3ege d>B c>AB>c | (3AAA G>A A>GE>A |E>A (3AAA c>de>c |1 d>cA>G A3 d :|2 d>cA>G A3 G ||E2 A AAA c2 d e2 c |1 d2 c A2 G A3 A2 G :|2 d2 c A2 G A2 B c2 d |||: ege d2 e c2 e B2 c | AAA d2c A2G E2c|E2 A AAA c2 d e2 c |1 d2 c A2 G A2 B c2 d :|2 d2 c A2 G A3 A2 G ||


Tune 110	Setting 12693

